X:1
T:James Gibb editions
T:Canticorum iubilo - Handel
%%score [ 1 2 3 4 ]
L:1/8
Q:1/4=108
M:2/2
K:G
V:1 treble nm="Soprano" snm="S"
V:2 treble nm="Alto" snm="A"
V:3 treble-8 nm="Tenor" snm="T"
V:4 bass nm="Bass" snm="B"
V:1
"^Canticorum iubilo""^G. F. Handel\n(1685-1759)" d4 (B3 c) | d4 G4 | (ABcd c2) B2 | A8 | %4
w: Can- ti\- *|co- rum|iu\- * * * * bi-|lo|
w: ||||
 (dcde d2) d2 | g4 d4 | (c2 B2) A4 | G8!fine! :| (BABc B2) B2 | A4 G4 | (c2 B2 A2) G2 | F8 | %12
w: Re\- * * * * gi|ma- gno|psal\- * li-|te.|Iam * * * * re-|sul- tent|mu\- * * si-|ca,|
w: ||||Per\- * * * * so-|nan- tes|or\- * * ga-|nis,|
 (GFGA G2) G2 | e4 ^c4 | (d2 ed ^c3) d |"^al fine" d8 |] %16
w: un\- * * * * da,|tel- lum,|si\- * * * de-|ra.|
w: iu\- * * * * bi-|la- te,|plau\- * * * di-|te.|
V:2
 G4 (G3 F) | G4 D4 | (FGAB A2) G2 | F8 | G6 G2 | G4 G4 | (F2 G4) F2 | G8 :| (GFGA G2) G2 | F4 E4 | %10
w: Can- ti\- *|co- rum|iu\- * * * * bi-|lo|Re- gi|ma- gno|psal\- * li-|te.|Iam * * * * re-|sul- tent|
w: ||||||||Per\- * * * * so-|nan- tes|
 (A2 G2 F2) E2 | ^D8 | (E^DEF E2) E2 | G6 G2 | (F2 GF E2) A2 | A8 |] %16
w: mu\- * * si-|ca,|un\- * * * * da,|tel- lum,|si\- * * * de-|ra.|
w: or\- * * ga-|nis,|iu\- * * * * bi-|la- te,|plau\- * * * di-|te.|
V:3
 B4 (d3 c) | B4 d4 | (c2 A2 d2) d2 | d8 | d6 d2 | d4 B4 | (c2 d4) c2 | B8 :| d6 d2 | c4 B4 | %10
w: Can- ti\- *|co- rum|iu\- * * bi-|lo|Re- gi|ma- gno|psal\- * li-|te.|Iam re-|sul- tent|
w: ||||||||Per- so-|nan- tes|
 (c2 e2 c2) B2 | B8 | B6 B2 | ^c4 e4 | (d2 B2 e2) e2 | f8 |] %16
w: mu\- * * si-|ca,|un- da,|tel- lum,|si\- * * de-|ra.|
w: or\- * * ga-|nis,|iu- bi-|la- te,|plau\- * * di-|te.|
V:4
 G,4 (B,3 A,) | G,4 B,4 | (A,3 G, F,2) G,2 | D,8 | (B,A,B,C B,2) B,2 | B,4 G,4 | (A,2 B,C D2) D,2 | %7
w: Can- ti\- *|co- rum|iu\- * * bi-|lo|Re\- * * * * gi|ma- gno|psal\- * * * li-|
w: |||||||
 G,8 :| G,6 G,2 | D,4 E,4 | (F,2 G,2 A,2) E,2 | B,8 | E,6 D2 | ^C4 A,4 | (B,2 G,2 A,2) A,2 | D,8 |] %16
w: te.|Iam re-|sul- tent|mu\- * * si-|ca,|un- da,|tel- lum,|si\- * * de-|ra.|
w: |Per- so-|nan- tes|or\- * * ga-|nis,|iu- bi-|la- te,|plau\- * * di-|te.|

